svg/incident_maintenance.svg

<svg width="24" height="24" viewBox="0 0 24 24" xmlns="http://www.w3.org/2000/svg">
<path fill-rule="evenodd" clip-rule="evenodd" d="M14.9392 4C13.3569 4 11.8102 4.46919 10.4946 5.34824C9.17899 6.22729 8.15361 7.47672 7.54811 8.93853C6.94261 10.4003 6.78419 12.0089 7.09287 13.5607C7.40155 15.1126 8.16348 16.538 9.2823 17.6569C10.4011 18.7757 11.8266 19.5376 13.3784 19.8463C14.9303 20.155 16.5388 19.9965 18.0006 19.391C19.4624 18.7855 20.7119 17.7602 21.5909 16.4446C22.47 15.129 22.9391 13.5823 22.9391 12C22.9391 9.87827 22.0963 7.84344 20.596 6.34315C19.0957 4.84285 17.0609 4 14.9392 4ZM18.8591 14.8L17.7391 15.92C17.7019 15.9578 17.6576 15.9878 17.6086 16.0083C17.5597 16.0288 17.5072 16.0393 17.4541 16.0393C17.4011 16.0393 17.3486 16.0288 17.2997 16.0083C17.2507 15.9878 17.2064 15.9578 17.1691 15.92L14.4391 13.19C13.9127 13.3789 13.3413 13.404 12.8003 13.2619C12.2593 13.1199 11.7739 12.8174 11.4081 12.3942C11.0423 11.9711 10.8132 11.4471 10.7509 10.8912C10.6886 10.3353 10.7961 9.77363 11.0591 9.28L12.9391 11.14L14.0691 10.01L12.1891 8.14C12.6824 7.87185 13.2454 7.75989 13.8037 7.81897C14.362 7.87805 14.8892 8.10538 15.3154 8.47083C15.7415 8.83628 16.0466 9.3226 16.1902 9.86534C16.3337 10.4081 16.3089 10.9816 16.1192 11.51L18.8491 14.28C18.9111 14.3525 18.9452 14.4447 18.9452 14.54C18.9452 14.6353 18.9111 14.7275 18.8491 14.8H18.8591Z" />
<path d="M2.93915 12C2.94057 10.7604 3.32589 9.55167 4.04215 8.53995C4.75841 7.52824 5.77045 6.7632 6.93915 6.35V4.28C5.23585 4.73411 3.73023 5.73808 2.65623 7.13593C1.58223 8.53377 1 10.2472 1 12.01C1 13.7728 1.58223 15.4862 2.65623 16.8841C3.73023 18.2819 5.23585 19.2859 6.93915 19.74V17.65C5.76934 17.2373 4.75619 16.4722 4.03915 15.46C3.32396 14.4479 2.9397 13.2393 2.93915 12Z" />
</svg>

<svg width="24" height="24" viewBox="0 0 24 24" xmlns="http://www.w3.org/2000/svg"><path fill-rule="evenodd" clip-rule="evenodd" d="M14.94 4a8 8 0 1 0 0 16 8 8 0 0 0 0-16zm3.92 10.8l-1.12 1.12a.4.4 0 0 1-.57 0l-2.73-2.73a2.77 2.77 0 0 1-3.38-3.91l1.88 1.86 1.13-1.13-1.88-1.87a2.77 2.77 0 0 1 3.93 3.37l2.73 2.77a.4.4 0 0 1 0 .52h.01z"/><path d="M2.94 12a6 6 0 0 1 4-5.65V4.28a8 8 0 0 0 0 15.46v-2.09a6 6 0 0 1-2.9-2.19A6 6 0 0 1 2.94 12z"/></svg>
